X:154
T: ES WAREN ZWEI KOENIGSKINDER
N: E0084
O: Europa, Mitteleuropa, Deutschland
R: erzaehlendes Volks - Lied, Sage, Liebe, Leid, Tod
M: 4/4
L: 1/8
K: G
D2 | B2BBB2A2 | A3GG2
D2 | c2cccBdB | A4z2
D2 | d2dedccc | B4dc
BA | G2GGBAA2 | G4
A4 | B2BBdcA2 | G4z2

@@@ Tune index: 3804
